Adwaita++-Dark/apps/16/org.gnome.Taquin.svg

<svg height="16" viewBox="0 0 16 16" width="16" xmlns="http://www.w3.org/2000/svg">
  <g fill="#e6ddff" transform="matrix(.44444444 0 0 .44444444 0 -.00000118383)">
    <path d="m0 0v10h10v-10zm4.8085938 1.2265625c.8723958 0 1.5494791.1920573 2.03125.5761719.485026.3841146.7285156.9205729.7285156 1.6074218 0 .3971355-.1035156.7682292-.3085938 1.1132813-.2050781.3417969-.6354166.8007813-1.2929687 1.3769531l-1.5585938 1.3671875h3.2089844v1.3808594h-5.2988281v-1.3808594l2.6621094-2.3496093c.2376302-.2148438.4134114-.4238282.5273437-.6289063s.1699219-.4192708.1699219-.640625c0-.3417969-.1145834-.6158854-.3457032-.8242187-.2278645-.2083334-.5332031-.3125-.9140624-.3125-.2929688 0-.6126303.0625-.9609376.1894531-.3483072.1236979-.7220052.3092448-1.1191406.5566406v-1.6015625c.4231771-.139974.8424479-.2447917 1.2558594-.3164062.4134115-.0748698.8177083-.1132813 1.2148438-.1132813z"/>
    <path d="m0 13v10h10v-10zm5.5546875 1.230469c.3352865 0 .6608073.02604.9765625.07813.3157552.05208.6282552.130208.9375.234375v1.347656c-.3092448-.146489-.6015625-.253911-.875-.322271-.2734375-.071614-.5403646-.107421-.8007812-.107421-.5598959 0-.9960938.15625-1.3085938.46875-.3125.309244-.4947917.76888-.546875 1.380859.2148438-.159505.4485677-.277344.6992188-.355469.250651-.08138.5240885-.123047.8203124-.123047.7454428 0 1.3450521.218099 1.8007813.654297.4589844.436198.6894531 1.008464.6894531 1.714844 0 .78125-.2565104 1.406901-.7675781 1.878906-.5110677.46875-1.1953125.703125-2.0546875.703125-.9472656 0-1.6822917-.31901-2.203125-.957031-.5175781-.641276-.7753906-1.549479-.7753906-2.72461 0-1.204427.3027344-2.149088.9082031-2.835937.608724-.690104 1.4420573-1.035156 2.5-1.035156zm-.4101563 3.8125c-.328776 0-.5761718.107422-.7421874.322265-.1627605.211589-.2441407.530599-.2441407.957032 0 .426432.08138.748046.2441407.96289.1660156.211589.4134114.316406.7421874.316406.3320313 0 .5794271-.104817.7421876-.316406.1660156-.214844.2480468-.536458.2480468-.96289 0-.426433-.082031-.745443-.2480468-.957032-.1627605-.214843-.4101563-.322265-.7421876-.322265z"/>
    <path d="m0 26v10h10v-10zm2.1933594 1.351562h5.4941406v1.060547l-2.8417969 6.230469h-1.8320312l2.6914062-5.908203h-3.5117187z"/>
    <path d="m13 0v10h10v-10zm4.681641 1.21875c.947265 0 1.654297.15625 2.123047.46875.472005.3092448.708984.7753906.708984 1.4003906 0 .4264323-.113281.7773438-.337891 1.0507813-.224609.2701823-.55664.4596354-.996093.5703125.491536.1269531.865234.3483073 1.11914.6640625.257162.3125.384766.7122396.384766 1.1972656 0 .7226563-.276693 1.2727865-.830078 1.6503906-.553386.374349-1.360677.5605469-2.421875.5605469-.374349 0-.749349-.029948-1.126953-.091797-.374349-.0585936-.745443-.1490884-1.113282-.2695311v-1.4492188c.351563.1757813.69987.3092448 1.044922.4003907.348307.087891.690104.1308593 1.025391.1308593.498047 0 .878906-.085286 1.142578-.2578125.266927-.172526.400391-.4199218.400391-.7421875 0-.3320312-.136719-.5826823-.410157-.7519531-.270182-.172526-.670573-.2597656-1.201172-.2597656h-.751953v-1.2109375h.791016c.472005 0 .823568-.072266 1.054687-.21875.23112-.1497396.345703-.3769531.345703-.6796875 0-.2799479-.111328-.4954427-.335937-.6484375s-.542969-.2304688-.953125-.2304688c-.302734 0-.608724.035156-.917969.1035157-.309245.068359-.615885.1692708-.921875.3027343v-1.3769531c.371094-.1041667.738933-.1822917 1.103516-.234375s.722656-.078125 1.074219-.078125z"/>
    <path d="m13 13v10h10v-10zm4.892578 1.351562h2.089844v4.59961h1.041016v1.361328h-1.041016v1.328125h-1.777344v-1.328125h-3.232422v-1.611328zm.3125 1.546876-2.060547 3.052734h2.060547z"/>
    <path d="m13 26v10h10v-10zm5.001953 1.232422c.882162 0 1.552735.160156 2.011719.482422.458984.31901.689453.78776.689453 1.40625 0 .413411-.113932.758463-.341797 1.035156-.224609.276693-.559245.481771-1.001953.615234.494792.136719.86849.360677 1.119141.669922.253906.30599.380859.69336.380859 1.16211 0 .722656-.240885 1.269531-.722656 1.640625-.478516.367838-1.190755.550781-2.134766.550781-.947265 0-1.663411-.182943-2.148437-.550781-.481771-.371094-.722657-.917969-.722657-1.640625 0-.46875.126302-.85612.376953-1.16211.253907-.309245.628256-.533203 1.123047-.669922-.442708-.133463-.777343-.338541-1.001953-.615234-.224609-.276693-.335937-.621745-.335937-1.035156 0-.615235.228515-1.083985.6875-1.40625.458984-.322266 1.132812-.482422 2.021484-.482422zm0 1.18164c-.299479 0-.530599.07813-.693359.234376-.159505.15625-.238282.377604-.238282.664062 0 .289714.07878.511719.238282.667969.16276.15625.39388.234375.693359.234375.292969 0 .520182-.07813.679688-.234375.159505-.15625.238281-.378255.238281-.667969s-.07878-.511068-.238281-.664062c-.159506-.15625-.386719-.234376-.679688-.234376zm0 2.978516c-.351562 0-.621745.09505-.810547.28711-.188802.192057-.283203.468098-.283203.826171s.0944.632162.283203.824219c.188802.188802.458985.283203.810547.283203.348307 0 .615235-.0944.800781-.283203.185547-.192057.279297-.466146.279297-.824219 0-.361328-.09375-.637369-.279297-.826171-.185546-.192058-.452474-.28711-.800781-.28711z"/>
    <path d="m26 0v10h10v-10zm2.580078 1.3613281h4.673828v1.3808594h-3.173828v1.1289063c.143229-.039063.286458-.068359.429688-.087891.146484-.022786.296875-.035156.453125-.035156.888671 0 1.58138.2239583 2.076171.6699219.494792.4427083.742188 1.0611979.742188 1.8554687 0 .7877604-.270182 1.4036458-.810547 1.8496094-.537109.4459635-1.285156.6699219-2.242187.6699219-.413412 0-.823568-.041667-1.230469-.1230469-.403646-.078125-.804688-.1985676-1.205078-.361328v-1.4785157c.397135.2278646.772135.3977865 1.126953.5117188.358073.1139323.695963.171875 1.011719.171875.455729 0 .813802-.1106771 1.074218-.3320313.263672-.2246094.394532-.5273437.394532-.9082031 0-.3841146-.13086-.686849-.394532-.9082031-.260416-.2213542-.618489-.3320313-1.074218-.3320313-.270183 0-.559245.035807-.865235.1074219-.305989.068359-.634765.1757812-.986328.3222656z"/>
    <path d="m26 17.25v10h10v-10zm4.859375 1.292969c.950521 0 1.686198.319661 2.207031.960937.520834.641276.78125 1.548828.78125 2.720703 0 1.204427-.305338 2.151693-.914062 2.841797-.608724.686849-1.442709 1.029297-2.503906 1.029297-.341797 0-.669922-.02604-.982422-.07813-.3125-.04883-.61849-.123698-.917969-.224609v-1.347657c.299479.139974.585937.246745.859375.31836.273437.06836.54362.101562.810547.101562.559896 0 .996094-.153645 1.308593-.46289.3125-.3125.497396-.77474.552735-1.386719-.221354.16276-.458333.283854-.708985.365234-.250651.08138-.521484.123047-.814453.123047-.745442 0-1.347656-.217448-1.80664-.65039-.455729-.436198-.683594-1.009115-.683594-1.71875 0-.784506.253906-1.412761.761719-1.884766.511067-.472005 1.194661-.707031 2.050781-.707031zm-.0098 1.18164c-.328776 0-.576171.107422-.742187.322266s-.25.533854-.25.957031c0 .426433.08398.746094.25.960938.166016.211588.413411.318359.742187.318359s.576172-.106771.742188-.318359c.166015-.214844.248047-.534505.248047-.960938 0-.423177-.08203-.742187-.248047-.957031-.166016-.214844-.413412-.322266-.742188-.322266z"/>
  </g>
</svg>

<svg xmlns="http://www.w3.org/2000/svg" width="16" height="16" version="1.1" viewBox="0 0 16 16">
 <g id="layer1" fill="#E6DDFF" transform="matrix(0.44444444,0,0,0.44444444,0,-451.71653)">
  <path id="use4158" fill="#E6DDFF" d="M 0,0 V 10 H 10 V 0 Z m 4.8085938,1.2265625 c 0.8723958,0 1.5494791,0.1920573 2.03125,0.5761719 0.485026,0.3841146 0.7285156,0.9205729 0.7285156,1.6074218 0,0.3971355 -0.1035156,0.7682292 -0.3085938,1.1132813 C 7.0546875,4.8652344 6.624349,5.3242188 5.9667969,5.9003906 L 4.4082031,7.2675781 H 7.6171875 V 8.6484375 H 2.3183594 V 7.2675781 L 4.9804688,4.9179688 C 5.218099,4.703125 5.3938802,4.4941406 5.5078125,4.2890625 5.6217448,4.0839844 5.6777344,3.8697917 5.6777344,3.6484375 c 0,-0.3417969 -0.1145834,-0.6158854 -0.3457032,-0.8242187 -0.2278645,-0.2083334 -0.5332031,-0.3125 -0.9140624,-0.3125 -0.2929688,0 -0.6126303,0.0625 -0.9609376,0.1894531 C 3.108724,2.8248698 2.735026,3.0104167 2.3378906,3.2578125 V 1.65625 C 2.7610677,1.516276 3.1803385,1.4114583 3.59375,1.3398438 4.0071615,1.264974 4.4114583,1.2265625 4.8085938,1.2265625 Z" transform="translate(0,1016.3622)"/>
  <path id="use4306" fill="#E6DDFF" d="M 0,13 V 23 H 10 V 13 Z m 5.5546875,1.230469 c 0.3352865,0 0.6608073,0.02604 0.9765625,0.07813 0.3157552,0.05208 0.6282552,0.130208 0.9375,0.234375 V 15.89063 C 7.1595052,15.744141 6.8671875,15.636719 6.59375,15.568359 6.3203125,15.496745 6.0533854,15.460938 5.7929688,15.460938 c -0.5598959,0 -0.9960938,0.15625 -1.3085938,0.46875 -0.3125,0.309244 -0.4947917,0.76888 -0.546875,1.380859 0.2148438,-0.159505 0.4485677,-0.277344 0.6992188,-0.355469 0.250651,-0.08138 0.5240885,-0.123047 0.8203124,-0.123047 0.7454428,0 1.3450521,0.218099 1.8007813,0.654297 0.4589844,0.436198 0.6894531,1.008464 0.6894531,1.714844 0,0.78125 -0.2565104,1.406901 -0.7675781,1.878906 -0.5110677,0.46875 -1.1953125,0.703125 -2.0546875,0.703125 -0.9472656,0 -1.6822917,-0.31901 -2.203125,-0.957031 -0.5175781,-0.641276 -0.7753906,-1.549479 -0.7753906,-2.72461 0,-1.204427 0.3027344,-2.149088 0.9082031,-2.835937 0.608724,-0.690104 1.4420573,-1.035156 2.5,-1.035156 z m -0.4101563,3.8125 c -0.328776,0 -0.5761718,0.107422 -0.7421874,0.322265 -0.1627605,0.211589 -0.2441407,0.530599 -0.2441407,0.957032 0,0.426432 0.08138,0.748046 0.2441407,0.96289 0.1660156,0.211589 0.4134114,0.316406 0.7421874,0.316406 0.3320313,0 0.5794271,-0.104817 0.7421876,-0.316406 0.1660156,-0.214844 0.2480468,-0.536458 0.2480468,-0.96289 0,-0.426433 -0.082031,-0.745443 -0.2480468,-0.957032 C 5.7239583,18.150391 5.4765625,18.042969 5.1445312,18.042969 Z" transform="translate(0,1016.3622)"/>
  <path id="use4308" fill="#E6DDFF" d="M 0,26 V 36 H 10 V 26 Z m 2.1933594,1.351562 H 7.6875 v 1.060547 L 4.8457031,34.642578 H 3.0136719 L 5.7050781,28.734375 H 2.1933594 Z" transform="translate(0,1016.3622)"/>
  <path id="use4310" fill="#E6DDFF" d="M 13,0 V 10 H 23 V 0 Z m 4.681641,1.21875 c 0.947265,0 1.654297,0.15625 2.123047,0.46875 0.472005,0.3092448 0.708984,0.7753906 0.708984,1.4003906 0,0.4264323 -0.113281,0.7773438 -0.337891,1.0507813 -0.224609,0.2701823 -0.55664,0.4596354 -0.996093,0.5703125 0.491536,0.1269531 0.865234,0.3483073 1.11914,0.6640625 0.257162,0.3125 0.384766,0.7122396 0.384766,1.1972656 0,0.7226563 -0.276693,1.2727865 -0.830078,1.6503906 C 19.30013,8.5950521 18.492839,8.78125 17.431641,8.78125 17.057292,8.78125 16.682292,8.751302 16.304688,8.689453 15.930339,8.6308594 15.559245,8.5403646 15.191406,8.4199219 V 6.9707031 c 0.351563,0.1757813 0.69987,0.3092448 1.044922,0.4003907 0.348307,0.087891 0.690104,0.1308593 1.025391,0.1308593 0.498047,0 0.878906,-0.085286 1.142578,-0.2578125 0.266927,-0.172526 0.400391,-0.4199218 0.400391,-0.7421875 C 18.804688,6.1699219 18.667969,5.9192708 18.394531,5.75 18.124349,5.577474 17.723958,5.4902344 17.193359,5.4902344 H 16.441406 V 4.2792969 h 0.791016 c 0.472005,0 0.823568,-0.072266 1.054687,-0.21875 0.23112,-0.1497396 0.345703,-0.3769531 0.345703,-0.6796875 0,-0.2799479 -0.111328,-0.4954427 -0.335937,-0.6484375 -0.224609,-0.1529948 -0.542969,-0.2304688 -0.953125,-0.2304688 -0.302734,0 -0.608724,0.035156 -0.917969,0.1035157 -0.309245,0.068359 -0.615885,0.1692708 -0.921875,0.3027343 V 1.53125 C 15.875,1.4270833 16.242839,1.3489583 16.607422,1.296875 16.972005,1.2447917 17.330078,1.21875 17.681641,1.21875 Z" transform="translate(0,1016.3622)"/>
  <path id="use4312" fill="#E6DDFF" d="M 13,13 V 23 H 23 V 13 Z m 4.892578,1.351562 h 2.089844 v 4.59961 h 1.041016 V 20.3125 h -1.041016 v 1.328125 H 18.205078 V 20.3125 h -3.232422 v -1.611328 z m 0.3125,1.546876 -2.060547,3.052734 h 2.060547 z" transform="translate(0,1016.3622)"/>
  <path id="use4314" fill="#E6DDFF" d="M 13,26 V 36 H 23 V 26 Z m 5.001953,1.232422 c 0.882162,0 1.552735,0.160156 2.011719,0.482422 0.458984,0.31901 0.689453,0.78776 0.689453,1.40625 0,0.413411 -0.113932,0.758463 -0.341797,1.035156 -0.224609,0.276693 -0.559245,0.481771 -1.001953,0.615234 0.494792,0.136719 0.86849,0.360677 1.119141,0.669922 0.253906,0.30599 0.380859,0.69336 0.380859,1.16211 0,0.722656 -0.240885,1.269531 -0.722656,1.640625 -0.478516,0.367838 -1.190755,0.550781 -2.134766,0.550781 -0.947265,0 -1.663411,-0.182943 -2.148437,-0.550781 -0.481771,-0.371094 -0.722657,-0.917969 -0.722657,-1.640625 0,-0.46875 0.126302,-0.85612 0.376953,-1.16211 0.253907,-0.309245 0.628256,-0.533203 1.123047,-0.669922 -0.442708,-0.133463 -0.777343,-0.338541 -1.001953,-0.615234 -0.224609,-0.276693 -0.335937,-0.621745 -0.335937,-1.035156 0,-0.615235 0.228515,-1.083985 0.6875,-1.40625 0.458984,-0.322266 1.132812,-0.482422 2.021484,-0.482422 z m 0,1.18164 c -0.299479,0 -0.530599,0.07813 -0.693359,0.234376 -0.159505,0.15625 -0.238282,0.377604 -0.238282,0.664062 0,0.289714 0.07878,0.511719 0.238282,0.667969 0.16276,0.15625 0.39388,0.234375 0.693359,0.234375 0.292969,0 0.520182,-0.07813 0.679688,-0.234375 0.159505,-0.15625 0.238281,-0.378255 0.238281,-0.667969 0,-0.289714 -0.07878,-0.511068 -0.238281,-0.664062 -0.159506,-0.15625 -0.386719,-0.234376 -0.679688,-0.234376 z m 0,2.978516 c -0.351562,0 -0.621745,0.09505 -0.810547,0.28711 -0.188802,0.192057 -0.283203,0.468098 -0.283203,0.826171 0,0.358073 0.0944,0.632162 0.283203,0.824219 0.188802,0.188802 0.458985,0.283203 0.810547,0.283203 0.348307,0 0.615235,-0.0944 0.800781,-0.283203 0.185547,-0.192057 0.279297,-0.466146 0.279297,-0.824219 0,-0.361328 -0.09375,-0.637369 -0.279297,-0.826171 -0.185546,-0.192058 -0.452474,-0.28711 -0.800781,-0.28711 z" transform="translate(0,1016.3622)"/>
  <path id="use4316" fill="#E6DDFF" d="M 26,0 V 10 H 36 V 0 Z m 2.580078,1.3613281 h 4.673828 v 1.3808594 h -3.173828 v 1.1289063 c 0.143229,-0.039063 0.286458,-0.068359 0.429688,-0.087891 0.146484,-0.022786 0.296875,-0.035156 0.453125,-0.035156 0.888671,0 1.58138,0.2239583 2.076171,0.6699219 0.494792,0.4427083 0.742188,1.0611979 0.742188,1.8554687 0,0.7877604 -0.270182,1.4036458 -0.810547,1.8496094 -0.537109,0.4459635 -1.285156,0.6699219 -2.242187,0.6699219 -0.413412,0 -0.823568,-0.041667 -1.230469,-0.1230469 -0.403646,-0.078125 -0.804688,-0.1985676 -1.205078,-0.361328 V 6.8300781 c 0.397135,0.2278646 0.772135,0.3977865 1.126953,0.5117188 0.358073,0.1139323 0.695963,0.171875 1.011719,0.171875 0.455729,0 0.813802,-0.1106771 1.074218,-0.3320313 0.263672,-0.2246094 0.394532,-0.5273437 0.394532,-0.9082031 0,-0.3841146 -0.13086,-0.686849 -0.394532,-0.9082031 -0.260416,-0.2213542 -0.618489,-0.3320313 -1.074218,-0.3320313 -0.270183,0 -0.559245,0.035807 -0.865235,0.1074219 -0.305989,0.068359 -0.634765,0.1757812 -0.986328,0.3222656 z" transform="translate(0,1016.3622)"/>
  <path id="use4320" fill="#E6DDFF" d="m 26,17.25 v 10 h 10 v -10 z m 4.859375,1.292969 c 0.950521,0 1.686198,0.319661 2.207031,0.960937 0.520834,0.641276 0.78125,1.548828 0.78125,2.720703 0,1.204427 -0.305338,2.151693 -0.914062,2.841797 -0.608724,0.686849 -1.442709,1.029297 -2.503906,1.029297 -0.341797,0 -0.669922,-0.02604 -0.982422,-0.07813 -0.3125,-0.04883 -0.61849,-0.123698 -0.917969,-0.224609 v -1.347657 c 0.299479,0.139974 0.585937,0.246745 0.859375,0.31836 0.273437,0.06836 0.54362,0.101562 0.810547,0.101562 0.559896,0 0.996094,-0.153645 1.308593,-0.46289 0.3125,-0.3125 0.497396,-0.77474 0.552735,-1.386719 -0.221354,0.16276 -0.458333,0.283854 -0.708985,0.365234 -0.250651,0.08138 -0.521484,0.123047 -0.814453,0.123047 -0.745442,0 -1.347656,-0.217448 -1.80664,-0.65039 -0.455729,-0.436198 -0.683594,-1.009115 -0.683594,-1.71875 0,-0.784506 0.253906,-1.412761 0.761719,-1.884766 0.511067,-0.472005 1.194661,-0.707031 2.050781,-0.707031 z m -0.0098,1.18164 c -0.328776,0 -0.576171,0.107422 -0.742187,0.322266 -0.166016,0.214844 -0.25,0.533854 -0.25,0.957031 0,0.426433 0.08398,0.746094 0.25,0.960938 0.166016,0.211588 0.413411,0.318359 0.742187,0.318359 0.328776,0 0.576172,-0.106771 0.742188,-0.318359 0.166015,-0.214844 0.248047,-0.534505 0.248047,-0.960938 0,-0.423177 -0.08203,-0.742187 -0.248047,-0.957031 -0.166016,-0.214844 -0.413412,-0.322266 -0.742188,-0.322266 z" transform="translate(0,1016.3622)"/>
 </g>
</svg>
